!! 00000] TT[00
!! NN
!!!OTL: Dao caicha
!!!ARE: Asia, China,Zhejiang, Jiangde
!! Ethnic Group: Han
!! III, 640
!!!SCT: C0364
!!!YEM: Copyright 1995, estate of Helmut Schaffrath.
**kern
*ICvox
*Ivox
!! Mixed meters:  3/4; 2/4
*M2/4
*k[f#c#g#]
*A:
{16cc#
16cc#
16cc#
16b
8a
8cc#
8.b
16cc#
=1
8a
8cc#
8.b
16cc#
=2
*M3/4
8a
16g#
16f#
8e
8f#
4a}
=3
*M2/4
{8a
8cc#
8b
8a
=4
*M3/4
8f#
8b
8a
8e
4f#
=5
8a
16b
16cc#
8.f#
16e
4f#}
=6
*M2/4
{8cc#
8a
8cc#
8a
=7
*M3/4
8ee
8a
8.ee
16cc#
4b
=8
8a
16g#
16f#
8e
8f#
4a}
=9
*M2/4
{8.a
16cc#
8b
8a
=10
*M3/4
8f#
8b
8a
8e
4f#
=11
8a
16g#
16a
8f#
8e
4f#}
==
!!!AGN: Xiaodiao, Deng Xiaodiao. Teepfluecken
!!!ONB: ESAC (Essen Associative Code) Database: CHINA_052
!!!AMT: irregular
!!!AIN: vox
!!!EED: Helmut Schaffrath
!!!EEV: 1.0
*-
